src/pos-icons/headset-dock.svg

<svg height="24" viewBox="0 0 24 24" width="24" xmlns="http://www.w3.org/2000/svg"><path d="m2 18h7v-11.87c-1.73.44-3 2.01-3 3.87v1h2v6h-2a2 2 0 0 1 -2-2v-5a6 6 0 0 1 6-6h1a6 6 0 0 1 6 6v2h1v-3h2v3a2 2 0 0 1 -2 2h-1v1a2 2 0 0 1 -2 2h-2v-6h2v-1c0-1.86-1.27-3.43-3-3.87v11.87h10v2h-20z"/></svg>

<?xml version="1.0" encoding="UTF-8"?><!DOCTYPE svg PUBLIC "-//W3C//DTD SVG 1.1//EN" "http://www.w3.org/Graphics/SVG/1.1/DTD/svg11.dtd"><svg xmlns="http://www.w3.org/2000/svg" xmlns:xlink="http://www.w3.org/1999/xlink" version="1.1" id="mdi-headset-dock" width="24" height="24" viewBox="0 0 24 24"><path d="M2,18H9V6.13C7.27,6.57 6,8.14 6,10V11H8V17H6A2,2 0 0,1 4,15V10A6,6 0 0,1 10,4H11A6,6 0 0,1 17,10V12H18V9H20V12A2,2 0 0,1 18,14H17V15A2,2 0 0,1 15,17H13V11H15V10C15,8.14 13.73,6.57 12,6.13V18H22V20H2V18Z" /></svg>
